X:1
T: Jazz Band Ball
C: Larry Shields and Nick LaRocca
M: 4/4
L: 1/16
K: D
"Em"^D2E2E2D2E2DE-EDED|
E2B2B3AG2F2E4|
"D7"D2DEFDEF"G"G2GABAGB|
"A7"AAG2F2E2"D7"D8|
"Em"^D2E2E2D2E2DE-EDED|
E2B2B3AG2F2E4|
"A7"AA2BAGE2AA2BAGE2|
AAG2F2E2"D7"D6^D2|
"E7"E2^G2B2G2E6D2|
"A7"C2E2G2B2B6E2|
"D7"D2F2A2F2D4-DDED|
"G"G2G2G4"B7"F2F2F4|
"E7"E2^G2B2G2E6D2|
"A7"C2E2G2B2B6G2|
"C6"A4^A4"G"BAB^B-B=BG2|
"D7"B^ABd-dB=A2"G"G3GF2^E2|]